assets/Ballet shoes/Flat/ballet_shoes_flat.svg

<svg width="32" height="32" viewBox="0 0 32 32" fill="none" xmlns="http://www.w3.org/2000/svg">
<path d="M10.1245 3.12793C13.6813 3.12793 16.0854 6.32256 16.0854 9.05603C16.0854 10.3913 15.606 11.6166 15.1156 12.8701C14.6021 14.1826 14.0765 15.5259 14.0765 17.0589C14.0765 18.783 14.3708 20.1518 14.6208 21.3145C14.8053 22.1728 14.9657 22.9189 14.9657 23.6127C14.9657 25.951 13.4376 30.0348 9.03765 30.0348H4.98687C2.61564 30.0348 2.02209 28.4112 2.02209 27.0061V20.8179C2.00781 20.8278 1.99712 20.8346 1.9902 20.8383C1.81718 20.9306 1.71338 20.8498 1.71338 20.6076V19.7887C1.71338 19.5696 1.78259 19.4081 1.9902 19.2351C2.00004 19.2269 2.01059 19.2178 2.02209 19.2077V17.0589C2.02209 16.3446 2.0532 15.3301 2.16772 14.1702C1.73379 13.5324 1.82723 12.8266 1.96733 12.2025C2.08337 11.6857 2.40018 11.5114 2.56705 11.4829C3.3846 7.46835 5.37752 3.12793 10.1245 3.12793ZM2.47661 11.9512C2.46619 12.0081 2.45601 12.065 2.44604 12.1217C2.44806 12.1025 2.45073 12.0832 2.45399 12.0635C2.46174 12.024 2.46929 11.9866 2.47661 11.9512ZM24.0392 3.12793C27.596 3.12793 30.0001 6.32256 30.0001 9.05603C30.0001 10.3913 29.5207 11.6166 29.0303 12.8701C28.5168 14.1826 27.9912 15.5259 27.9912 17.0589C27.9912 18.783 28.2854 20.1518 28.5354 21.3144L28.5354 21.3145C28.72 22.1728 28.8804 22.9189 28.8804 23.6127C28.8804 25.951 27.3523 30.0348 22.9523 30.0348H18.9015C16.5303 30.0348 15.9368 28.4112 15.9368 27.0061V20.8179C15.9225 20.8278 15.9118 20.8346 15.9049 20.8383C15.7319 20.9306 15.6281 20.8498 15.6281 20.6076V19.7887C15.6281 19.5696 15.6973 19.4081 15.9049 19.2351C15.9147 19.2269 15.9253 19.2178 15.9368 19.2077V17.0589C15.9368 16.3446 15.9679 15.3301 16.0824 14.1702C15.6485 13.5324 15.7419 12.8266 15.882 12.2025C15.998 11.6857 16.3148 11.5114 16.4817 11.4829C17.2993 7.46835 19.2922 3.12793 24.0392 3.12793ZM16.3913 11.9512C16.3809 12.0081 16.3707 12.065 16.3607 12.1217C16.3627 12.1025 16.3654 12.0832 16.3687 12.0635C16.3764 12.024 16.384 11.9866 16.3913 11.9512Z" fill="#FF6DC6"/>
<path d="M10.5259 21.3618C9.98207 22.379 8.89877 22.9638 6.95055 22.9638H5.00509C3.88105 22.9638 3 22.2782 3 21.0117C3 20.6843 3.00041 20.3772 3.00096 20.0383C3.73613 19.4295 4.76523 18.5456 5.73337 17.6403C7.15137 18.8886 8.81898 20.2321 10.5259 21.3618ZM10.9437 19.9153C9.84768 19.0872 8.31321 17.9099 6.7726 16.6342C7.50567 15.9078 8.22519 15.2034 8.8448 14.5968L8.84488 14.5967L8.84498 14.5966L8.84505 14.5966C9.29746 14.1537 9.69659 13.7629 10.0088 13.4538C9.98803 13.6235 9.97678 13.796 9.97678 13.9715C9.97678 15.1282 10.2262 15.7807 10.4779 16.4392C10.7341 17.1098 10.9928 17.7866 10.9928 19.0081C10.9928 19.3263 10.9775 19.6292 10.9437 19.9153ZM11.2053 10.3416C11.1078 10.4386 10.9934 10.5528 10.864 10.6821C9.8076 11.7367 7.74697 13.7939 5.69095 15.7216C4.96364 15.0955 4.25819 14.4603 3.62199 13.8435C3.47688 13.6945 3.34806 13.5606 3.23401 13.4394C3.57395 10.821 4.28488 8.36554 5.32901 6.78233C6.55084 4.92965 8.81473 4.45834 10.7106 5.67455C11.5216 6.19482 11.9655 6.9946 11.9655 7.98383C11.9655 8.76619 11.6132 9.53706 11.2053 10.3416ZM3.06701 15.1372C3.0251 15.758 3.00391 16.3793 3.00391 16.9922C3.00391 17.4784 3.00371 17.8971 3.00341 18.2654C3.38859 17.8952 3.92224 17.3859 4.67011 16.6807C4.05709 16.1137 3.51488 15.5876 3.06701 15.1372ZM24.4406 21.3618C23.8967 22.379 22.8134 22.9638 20.8652 22.9638H18.9198C17.7957 22.9638 16.9147 22.2782 16.9147 21.0117C16.9147 20.6843 16.9151 20.3772 16.9156 20.0383C17.6508 19.4295 18.6799 18.5456 19.648 17.6403C21.066 18.8886 22.7337 20.2321 24.4406 21.3618ZM24.8584 19.9153C23.7624 19.0872 22.2279 17.9099 20.6873 16.6342C21.4203 15.9078 22.1397 15.2035 22.7593 14.597L22.7597 14.5966L22.7601 14.5962C23.2124 14.1534 23.6114 13.7628 23.9235 13.4538C23.9027 13.6235 23.8915 13.796 23.8915 13.9715C23.8915 15.1282 24.1409 15.7807 24.3925 16.4392C24.6488 17.1098 24.9075 17.7866 24.9075 19.0081C24.9075 19.3263 24.8921 19.6292 24.8584 19.9153ZM25.1199 10.3416C25.0225 10.4386 24.9081 10.5528 24.7787 10.682L24.7786 10.6821C23.7223 11.7367 21.6616 13.7939 19.6056 15.7216C18.8783 15.0955 18.1729 14.4603 17.5367 13.8435C17.3916 13.6945 17.2627 13.5606 17.1487 13.4394C17.4886 10.821 18.1996 8.36554 19.2437 6.78233C20.4655 4.92965 22.7294 4.45834 24.6252 5.67455C25.4362 6.19482 25.8801 6.9946 25.8801 7.98383C25.8801 8.76619 25.5279 9.53706 25.1199 10.3416ZM16.9817 15.1372C16.9398 15.758 16.9186 16.3793 16.9186 16.9922C16.9186 17.4784 16.9184 17.8971 16.9181 18.2654C17.3033 17.8952 17.8369 17.3859 18.5848 16.6807C17.9718 16.1137 17.4295 15.5876 16.9817 15.1372Z" fill="#BB1D80"/>
<path d="M10.3672 12.1016C10.2344 12.4419 10.1168 12.9865 10.0413 13.336L10.0177 13.4451C9.80409 13.6566 9.54923 13.9069 9.26404 14.1863C9.56928 12.5965 10.0177 11.5631 11.2188 10.3281C11.0235 10.6797 10.5518 11.6287 10.3672 12.1016Z" fill="#D73B9A"/>
<path d="M2.49146 12.4872C2.2744 12.0436 1.96484 12.2032 1.91016 12.5157C1.94922 12.2031 2.07812 11.5547 2.57812 11.4531C2.49536 11.8906 2.47119 12.0565 2.49146 12.4872Z" fill="#D73B9A"/>
<path d="M3.10838 15.1732C2.72283 14.7832 2.32379 14.3457 2.17246 14.1757L2.17094 14.2001C2.1502 14.5314 2.12092 14.9993 2.52555 15.4422C2.79226 15.7342 2.97232 16.1369 3.00781 16.3555C3.00946 16.3267 3.0112 16.2916 3.01322 16.2511C3.02498 16.0152 3.0459 15.5954 3.10838 15.1732Z" fill="#D73B9A"/>
<path d="M2.03845 22V20.8064C2.17122 20.7121 2.5239 20.4333 3 20.0391V21.1457C3 20.3906 2.03845 21.3582 2.03845 22Z" fill="#D73B9A"/>
<path d="M6.48418 18.2863C6.03644 17.9021 5.82072 17.7156 5.73385 17.6398C6.01655 17.3755 6.29405 17.1093 6.55751 16.8476L6.77484 16.632L7.10953 16.9109C6.76439 17.2516 6.15857 18.0016 6.48418 18.2863Z" fill="#D73B9A"/>
<path d="M10.3867 19.4844C10.6515 19.6929 10.105 21.0725 9.63514 20.7477L10.5234 21.3672C10.5234 21.3672 10.8164 20.8047 10.9414 19.9023L10.8771 19.8564C10.7679 19.7786 10.6892 19.7226 10.3867 19.4844Z" fill="#D73B9A"/>
<path d="M23.956 13.336C24.0315 12.9865 24.1491 12.4419 24.2819 12.1016C24.4664 11.6287 24.9381 10.6797 25.1335 10.3281C23.9324 11.5631 23.484 12.5965 23.1787 14.1863C23.4639 13.9069 23.7188 13.6566 23.9324 13.4451L23.956 13.336Z" fill="#D73B9A"/>
<path d="M16.4061 12.4872C16.1891 12.0436 15.8795 12.2032 15.8248 12.5157C15.8639 12.2031 15.9928 11.5547 16.4928 11.4531C16.41 11.8906 16.3859 12.0565 16.4061 12.4872Z" fill="#D73B9A"/>
<path d="M23.5498 20.7477C24.0197 21.0725 24.5661 19.6929 24.3014 19.4844C24.6039 19.7226 24.6825 19.7786 24.7918 19.8564L24.8561 19.9023C24.7311 20.8047 24.4381 21.3672 24.4381 21.3672L23.5498 20.7477Z" fill="#D73B9A"/>
<path d="M16.0871 14.1757C16.2385 14.3457 16.6375 14.7832 17.023 15.1732C16.9606 15.5954 16.9397 16.0151 16.9279 16.251C16.9259 16.2916 16.9241 16.3267 16.9225 16.3555C16.887 16.1369 16.7069 15.7342 16.4402 15.4422C16.0356 14.9993 16.0649 14.5314 16.0856 14.2001L16.0871 14.1757Z" fill="#D73B9A"/>
<path d="M15.9531 20.8064V22C15.9531 21.3582 16.9147 20.3906 16.9147 21.1457V20.0391C16.4386 20.4333 16.0859 20.7121 15.9531 20.8064Z" fill="#D73B9A"/>
<path d="M19.6485 17.6398C19.7354 17.7156 19.9511 17.9021 20.3989 18.2863C20.0732 18.0016 20.6791 17.2516 21.0242 16.9109L20.6895 16.632L20.4722 16.8476C20.2087 17.1093 19.9312 17.3755 19.6485 17.6398Z" fill="#D73B9A"/>
</svg>

<svg xmlns="http://www.w3.org/2000/svg" width="32" height="32" fill="none"><path fill="#FF6DC6" d="M10.124 3.128c3.557 0 5.961 3.195 5.961 5.928 0 1.335-.479 2.56-.97 3.814-.513 1.313-1.039 2.656-1.039 4.189 0 1.724.295 3.093.545 4.255.184.859.345 1.605.345 2.299 0 2.338-1.528 6.422-5.928 6.422H4.987c-2.371 0-2.965-1.624-2.965-3.029v-6.188a.367.367 0 0 1-.032.02c-.173.093-.277.012-.277-.23v-.82c0-.218.07-.38.277-.553l.032-.027v-2.15c0-.713.031-1.728.146-2.888-.434-.638-.34-1.343-.2-1.967.115-.517.432-.692.6-.72.817-4.015 2.81-8.355 7.556-8.355ZM2.477 11.95Zm21.562-8.823C27.596 3.128 30 6.323 30 9.056c0 1.335-.48 2.56-.97 3.814-.513 1.313-1.039 2.656-1.039 4.189 0 1.724.294 3.093.544 4.255.185.859.345 1.605.345 2.299 0 2.338-1.528 6.422-5.928 6.422h-4.05c-2.372 0-2.965-1.624-2.965-3.029v-6.188a.373.373 0 0 1-.032.02c-.173.093-.277.012-.277-.23v-.82c0-.218.07-.38.277-.553l.032-.027v-2.15c0-.713.03-1.728.145-2.888-.434-.638-.34-1.343-.2-1.967.116-.517.433-.692.6-.72.817-4.015 2.81-8.355 7.557-8.355Zm-7.648 8.823Z"/><path fill="#BB1D80" d="M10.526 21.362c-.544 1.017-1.627 1.602-3.575 1.602H5.005C3.881 22.964 3 22.278 3 21.012l.001-.974a63.323 63.323 0 0 0 2.732-2.398c1.418 1.249 3.086 2.592 4.793 3.722Zm.418-1.447a121.098 121.098 0 0 1-4.171-3.28c.733-.727 1.452-1.432 2.072-2.038.452-.443.852-.834 1.164-1.143-.021.17-.032.342-.032.518 0 1.156.25 1.809.5 2.467.257.67.516 1.348.516 2.57 0 .317-.016.62-.05.906Zm.261-9.573-.341.34c-1.056 1.055-3.117 3.112-5.173 5.04a47.876 47.876 0 0 1-2.069-1.878 33.09 33.09 0 0 1-.388-.405c.34-2.618 1.05-5.073 2.095-6.657 1.222-1.852 3.486-2.324 5.382-1.107.81.52 1.255 1.32 1.255 2.309 0 .782-.353 1.553-.76 2.358Zm-8.138 4.795a27.6 27.6 0 0 0-.063 1.855v1.273c.385-.37.918-.88 1.666-1.584a53.794 53.794 0 0 1-1.603-1.544Zm21.374 6.225c-.544 1.017-1.628 1.602-3.576 1.602H18.92c-1.124 0-2.005-.686-2.005-1.952v-.974a63.281 63.281 0 0 0 2.733-2.398c1.418 1.249 3.086 2.592 4.793 3.722Zm.417-1.447a121.107 121.107 0 0 1-4.17-3.28 468.77 468.77 0 0 1 2.071-2.038h.001c.452-.444.851-.834 1.163-1.143a4.25 4.25 0 0 0-.031.518c0 1.156.249 1.809.5 2.467.257.67.515 1.348.515 2.57 0 .317-.015.62-.049.906Zm.262-9.573-.341.34a236.241 236.241 0 0 1-5.173 5.04 47.88 47.88 0 0 1-2.07-1.878 32.803 32.803 0 0 1-.387-.405c.34-2.618 1.05-5.073 2.095-6.657 1.221-1.852 3.485-2.324 5.381-1.107.811.52 1.255 1.32 1.255 2.309 0 .782-.352 1.553-.76 2.358Zm-8.138 4.795c-.042.621-.063 1.242-.063 1.855v1.273c.384-.37.918-.88 1.666-1.584a53.733 53.733 0 0 1-1.603-1.544Z"/><path fill="#D73B9A" d="M10.367 12.102c-.133.34-.25.884-.326 1.234l-.023.11-.754.74c.305-1.59.754-2.623 1.955-3.858-.195.352-.667 1.3-.852 1.774ZM2.491 12.487c-.217-.443-.526-.284-.58.029.038-.313.167-.961.667-1.063-.083.438-.107.604-.087 1.034ZM3.108 15.173c-.385-.39-.784-.827-.936-.997l-.001.024c-.02.331-.05.8.355 1.242.266.292.446.695.482.913l.005-.104c.012-.236.033-.656.095-1.078ZM2.038 22v-1.194c.133-.094.486-.373.962-.767v1.107c0-.755-.962.212-.962.854ZM6.484 18.286c-.448-.384-.663-.57-.75-.646.283-.265.56-.53.824-.792l.217-.216.335.279c-.346.34-.951 1.09-.626 1.375ZM10.387 19.484c.264.209-.282 1.588-.752 1.264l.888.62s.293-.563.418-1.466l-.064-.046c-.11-.077-.188-.133-.49-.372ZM23.956 13.336c.076-.35.193-.894.326-1.234.184-.473.656-1.422.852-1.774-1.202 1.235-1.65 2.269-1.955 3.858l.753-.74.024-.11ZM16.406 12.487c-.217-.443-.526-.284-.581.029.039-.313.168-.961.668-1.063-.083.438-.107.604-.087 1.034ZM23.55 20.748c.47.325 1.016-1.055.751-1.264.303.239.382.295.49.372l.065.046c-.125.903-.418 1.465-.418 1.465l-.888-.62ZM16.087 14.176c.151.17.55.607.936.997-.062.422-.083.842-.095 1.078l-.006.104c-.035-.218-.215-.62-.482-.913-.404-.443-.375-.91-.354-1.242l.001-.024ZM15.953 20.806V22c0-.642.962-1.61.962-.854v-1.107c-.476.394-.83.673-.962.767ZM19.648 17.64l.75.646c-.325-.284.281-1.034.626-1.375l-.335-.279-.217.216a38.07 38.07 0 0 1-.824.792Z"/></svg>
